X: 41
T:Peggie's Wedding
M:6/8
L:1/8
R:Jig
K:C % no sharps or flats
G|"C"c&gt;dc c2 c|"Am"c&gt;eg g&gt;ec|"C"c&gt;dc c2 c|"G"B&gt;cd d&gt;BG|"C"c&gt;dc c2 c|!
c&gt;eg g&gt;ec|"F"f&gt;af "C"e&gt;ge|"G7"B&gt;cd d&gt;BG||"C"c&gt;dc g2 c|"Am"e2 c g2 c|"C"c
&gt;dc g2 c|!
"G"B&gt;cd d&gt;BG|"C"c&gt;dc g&gt;ec|"Am"e&gt;dc g&gt;ec|"F"f&gt;af "C"e&gt;ge|1"G7"B&gt;cd d&gt;BG:|
|2"G7"B&gt;cd c2||

